X:1
T:Ah Clori, ah rabiosetta
T:Domenico Obizzi
T:Madrigal
T:Source : Madrigali et arie a voce sola---Libro I ---Venetia---A.Vincenti---1627. Editor : André Vierendeels (23/02/16).
T:Notes : Original clefs : C1, F4 Editorial accidentals above the staff See also the"risposta" (answer) to this madrigal, "Per un morso" by the same composer
T:Ah Clori, ah rabiosetta
T:©
T:©
T:©
T:©
T:©
T:©
C:Domenico Obizzi
Z:©
%%score 1 2
L:1/8
Q:1/4=120
M:4/4
K:C
V:1 treble nm="Soprano" snm="S"
V:2 bass nm="BC" snm="BC"
V:1
 z2 d2 B2 Bd | cB A2 G4 | z DG^F G2 G2 | z FGD E2 E2 | z EAG A2 A2 | z GAE ^FF A2- | A2 d4 ^c2 | %7
w: Ah Clo- ri, ah|ra- bio- set- ta,|tu mi scher- mi- sci|in que- sta gui- sa,|tu mi scher- mi- sci|in que- sta gui- sa, ahi,|_ ah- i,|
"^-natural" z2 e2 c2 ce | dc B2 A4 | z Adc d2 d2 | z deB ^cc e2- | e2 d4 ^c2 | %12
w: ah Clo- ri, ah|ra- bio- set- ta,|tu mi scher- mi- sci|in que- sta gui- sa, ahi,|_ ah- i|
"^-natural" z2 ce d2 c>e | B4 A2 FA | G2 F>_B E4 | D4 A4 | A4 z2 AG | A2 Ad cBBA | %18
w: fer- ma, fer- ma che|fa- i, fer- ma,|fer- ma che fa-|i, dun-|que, dun- que,|dun- que co- si co la- br'in-|
 B2 BB c/B/c/G/ A2 | Ac d/c/d/A/ B2 cc | c2- B2 c3 e | cB B2 A4 | z2 dd dcBA | B2 Bd G^F G2 | %24
w: gor- di, ba- ciar _ _ _ fin-|gi, ba- ciar _ _ _ fin- gi'e poi|mor- * di, ah|Clo- ri Clo- ri,|Clo- ri, Clo- ri ra- bio-|set- ta, tu mi scher- mi-|
 GGG^F A2 A2 | c4 c4 | e2 eB cBBA | B2 BG A/G/A/B/ c2- | c2 ce d4 | cC E/D/E/F/ G2 G2- | G2 GA A4 | %31
w: sci in que- sta gui- sa,|dun- que,|dun- que co- si co la- br'in-|gor- di, ba- ciar _ _ _ fin|_ gi'e poi mor-|di, ba- ciar _ _ _ _ fin-|* gi'e poi mor-|
 G4 z G E2 | z c G2 z ccG | A2 G2 A2 GF | G4 GccG | A2 A2 z ddA | B2 A2 B2 AG | A4 A2 D/E/^F/D/ | %38
w: di, mà che|mà che sa- pro ben'|i- o fa- me ven-|det- ta, sa- pro ben'|i- o, sa- pro ben'|i- o, fa- me ven-|det- ta s'a- * * *|
 A2 d2 c2 B/c/d/c/ | B4 A4 | z2 ^G2 A2 B2 | cB cA B2 d2- | d2 cB A4 | G2 D/E/F/D/ G3 G | %44
w: vien ch'io piu ti _ _ _|ba- ci,|sa- ran- no'i|ba- * ci _ miei mor-|* si'e, non ba-|ci, s'a- * * * vien ch'io|
 F2 E/F/G/F/ E4 | D2 E2 F2 G2 | AG AF G2 G2- | G2 F4 E2 | D4 C4 | z2 B2 c2 d2 | ed ec d2 d2- | %51
w: piu ti- * * * ba-|ci, sa- ran- no'i|ba- * ci _ miei mor-|* si'e, non|ba- ci,|sa- ran- no'i|ba- * ci _ miei mor-|
 d2 c4 B2 | AB/c/ Bc/B/ A4 | G8 |] %54
w: * si'e, non|ba- * * * * * *|ci|
V:2
 G,,4 G,,2 B,,2 | C,2 D,2 G,,4 | G,,4 G,,4 | A,,2 B,,2 C,4 | C,4 ^C,4 | ^C,4 D,4 | ^F,4 A,4 | %7
 A,,4 A,,2 C,2 | D,2 E,2 A,,2 A,2 | ^F,4 F,4 | ^F,2 ^G,2 A,4 | _B,4 A,4 | A,,4 B,,2 C,2 | %13
 D,2 E,2 A,,2 D,2 | E,2 F,2 G,2 A,2 | D,4 D,4 | D,8 | D,4 A,,4 | E,4 E,2 F,2- | F,2 ^F,2 G,2 A,2 | %20
 G,4 C,4 | A,,2 E,2 A,,2 A,G, | ^F,4 F,4 | G,4 E,4 | E,4 D,4 | A,,8 | A,,8 | E,4 F,4 | %28
 F,2 E,2 G,4 | C,4 C,4 | B,,2 C,2 D,4 | G,,4 C,4 | C,4 E,4 |"^(#)""^(-natural)" F,2 E,2 F,2 E,D, | %34
 C,4 C,2 E,2 | F,4 ^F,4 |"^(-natural)" G,2 ^F,2 G,2 F,E, | D,4 D,4 | D,4 A,,4 | E,4 A,,4 | %40
 A,2 E,2 ^F,2 ^G,2 | A,2 A,,2 E,2 B,,2 | C,4 D,4 | G,,4 G,,2 B,,2 | D,2 G,,2 A,,4 | %45
 D,2 ^C,2 D,2 E,2 | F,2 F,,2 C,4 | D,4 E,4 | F,2 G,2 C,4 | C2 G,2 A,2 B,2 | C2 C,2 G,2 G,,2 | %51
 A,,4 B,,4 | C,4 D,4 | G,,8 |] %54

